src/Pure/16/symbolic/actions/checkbox-checked-symbolic.svg

<?xml version="1.0" encoding="UTF-8" standalone="no"?>
<svg
   width="16px"
   height="16px"
   version="1.1"
   viewBox="0 0 16 16"
   id="svg2"
   sodipodi:docname="checkbox-checked-symbolic.svg"
   inkscape:version="1.4.2 (ebf0e940d0, 2025-05-08)"
   xmlns:inkscape="http://www.inkscape.org/namespaces/inkscape"
   xmlns:sodipodi="http://sodipodi.sourceforge.net/DTD/sodipodi-0.dtd"
   xmlns="http://www.w3.org/2000/svg"
   xmlns:svg="http://www.w3.org/2000/svg">
  <defs
      id="defs2">
      <style
          id="current-color-scheme"
          type="text/css">
          .ColorScheme-Text { color:#363636; }
      </style>
  </defs>
  <sodipodi:namedview
     id="namedview2"
     pagecolor="#ffffff"
     bordercolor="#000000"
     borderopacity="0.25"
     inkscape:showpageshadow="2"
     inkscape:pageopacity="0.0"
     inkscape:pagecheckerboard="0"
     inkscape:deskcolor="#d1d1d1"
     inkscape:zoom="49.6875"
     inkscape:cx="8"
     inkscape:cy="8"
     inkscape:window-width="1920"
     inkscape:window-height="1010"
     inkscape:window-x="0"
     inkscape:window-y="0"
     inkscape:window-maximized="1"
     inkscape:current-layer="svg2" />
  <path
     id="path1"
     style="fill:currentColor;opacity:0.35"
     class="ColorScheme-Text"
     d="M 3 0 C 1.338 0 0 1.338 0 3 L 0 13 C 0 14.662 1.338 16 3 16 L 13 16 C 14.662 16 16 14.662 16 13 L 16 3 C 16 1.338 14.662 0 13 0 L 3 0 z M 3 1 L 13 1 C 14.108 1 15 1.892 15 3 L 15 3.2929688 L 7.5 10.792969 L 4.3183594 7.6113281 C 4.1224894 7.4154581 3.8071981 7.4154581 3.6113281 7.6113281 C 3.4154581 7.8071981 3.4154581 8.1224894 3.6113281 8.3183594 L 7.1464844 11.853516 C 7.1709684 11.877999 7.1968584 11.899606 7.2246094 11.917969 C 7.2523604 11.936331 7.282414 11.950649 7.3125 11.962891 C 7.333737 11.971532 7.3549501 11.97683 7.3769531 11.982422 C 7.3939681 11.986771 7.4104334 11.991617 7.4277344 11.994141 C 7.4515014 11.997584 7.476035 12 7.5 12 C 7.523653 12 7.5468495 11.997495 7.5703125 11.994141 C 7.5882635 11.991593 7.6054009 11.986932 7.6230469 11.982422 C 7.6448219 11.976856 7.666478 11.971446 7.6875 11.962891 C 7.717585 11.950649 7.7476386 11.936331 7.7753906 11.917969 C 7.7890946 11.9089 7.8014881 11.89728 7.8144531 11.886719 C 7.8275701 11.876007 7.8412746 11.865757 7.8535156 11.853516 L 15 4.7070312 L 15 13 C 15 14.108 14.108 15 13 15 L 3 15 C 1.892 15 1 14.108 1 13 L 1 3 C 1 1.892 1.892 1 3 1 z " />
</svg>

<svg width="16px" height="16px" version="1.1" viewBox="0 0 16 16" xmlns="http://www.w3.org/2000/svg">
 <path d="m15 3.293-7.5 7.5-3.1816-3.1816c-0.19587-0.19587-0.51116-0.19587-0.70703 0s-0.19587 0.51116 0 0.70703l3.5352 3.5352c0.024484 0.024483 0.050374 0.04609 0.078125 0.064453 0.027751 0.018362 0.057805 0.03268 0.087891 0.044922 0.021237 0.008641 0.04245 0.013939 0.064453 0.019531 0.017015 0.004349 0.03348 0.009195 0.050781 0.011719 0.023767 0.003443 0.048301 0.005859 0.072266 0.005859 0.023653 0 0.046849-0.002505 0.070312-0.005859 0.017951-0.002548 0.035088-0.007209 0.052734-0.011719 0.021775-0.005566 0.043431-0.010976 0.064453-0.019531 0.030085-0.012242 0.060139-0.02656 0.087891-0.044922 0.013704-0.009069 0.026097-0.020689 0.039062-0.03125 0.013117-0.010712 0.026821-0.020962 0.039062-0.033203l7.1465-7.1465v-1.4141z" fill="#363636"/>
 <path d="m3 0c-1.662 0-3 1.338-3 3v10c0 1.662 1.338 3 3 3h10c1.662 0 3-1.338 3-3v-10c0-1.662-1.338-3-3-3h-10zm0 1h10c1.108 0 2 0.892 2 2v10c0 1.108-0.892 2-2 2h-10c-1.108 0-2-0.892-2-2v-10c0-1.108 0.892-2 2-2z" fill="#363636"/>
</svg>
